material/.icons/material/fridge-top.svg

<svg xmlns="http://www.w3.org/2000/svg" viewBox="0 0 24 24"><path d="M8 8V6h2v2H8M7 2h10a2 2 0 012 2v15a2 2 0 01-2 2v1h-2v-1H9v1H7v-1a2 2 0 01-2-2V4a2 2 0 012-2m0 2v5h10V4H7m1 8v3h2v-3H8z"/></svg>

<?xml version="1.0" encoding="UTF-8"?><!DOCTYPE svg PUBLIC "-//W3C//DTD SVG 1.1//EN" "http://www.w3.org/Graphics/SVG/1.1/DTD/svg11.dtd"><svg xmlns="http://www.w3.org/2000/svg" xmlns:xlink="http://www.w3.org/1999/xlink" version="1.1" id="mdi-fridge-top" width="24" height="24" viewBox="0 0 24 24"><path d="M8,8V6H10V8H8M7,2H17A2,2 0 0,1 19,4V19A2,2 0 0,1 17,21V22H15V21H9V22H7V21A2,2 0 0,1 5,19V4A2,2 0 0,1 7,2M7,4V9H17V4H7M8,12V15H10V12H8Z" /></svg>
